X:180
T: WIE EIN SCHIFFLEIN AUF DEM MEER
N: B0667
O: Europa, Mitteleuropa, Deutschland
R: Moral - Lied, Vergaenglichkeit
M: 4/4
L: 1/16
K: Eb
 | G4G4B6A2 | G4A4F8 |
E4E4A4G4 | F3GF3GF8 |
B4B4e4d4 | c3de2c2B8 |
A4G4c4B4 | A4F4E8

@@@ Tune index: 2398
